dist/images/src/monitor.svg

<svg width="80" height="60" viewBox="0 0 80 60" fill="none" xmlns="http://www.w3.org/2000/svg">
<path fill-rule="evenodd" clip-rule="evenodd" d="M5 2H75C76.6569 2 78 3.34326 78 5V42H2V5C2 3.34326 3.34314 2 5 2ZM80 44V42V5C80 2.23853 77.7615 0 75 0H5C2.23853 0 0 2.23853 0 5V42V44V45C0 47.7615 2.23853 50 5 50H39V58H26C25.4478 58 25 58.4478 25 59C25 59.5522 25.4478 60 26 60H54C54.5522 60 55 59.5522 55 59C55 58.4478 54.5522 58 54 58H41V50H75C77.7615 50 80 47.7615 80 45V44ZM2 45V44H78V45C78 46.6567 76.6569 48 75 48H5C3.34314 48 2 46.6567 2 45ZM40 47C40.5522 47 41 46.5522 41 46C41 45.4478 40.5522 45 40 45C39.4478 45 39 45.4478 39 46C39 46.5522 39.4478 47 40 47Z" fill="#5528FF"/>
</svg>

<svg width="80" height="60" fill="none" xmlns="http://www.w3.org/2000/svg"><path fill-rule="evenodd" clip-rule="evenodd" d="M5 2h70a3 3 0 013 3v37H2V5a3 3 0 013-3zm75 42V5a5 5 0 00-5-5H5a5 5 0 00-5 5v40a5 5 0 005 5h34v8H26a1 1 0 000 2h28a1 1 0 000-2H41v-8h34a5 5 0 005-5v-1zM2 45v-1h76v1a3 3 0 01-3 3H5a3 3 0 01-3-3zm38 2a1 1 0 100-2 1 1 0 000 2z" fill="#5528FF"/></svg>
